X: 341
M: 6/8
L: 1/8
K: D
!segno!A |\
(F2D) (E2A) | (F2D) (E2G) | FGF EFE | D2D D2A |\
(F2D) (E2A) | (F2D) (E2G) | FGF EFE | D2D D2 |]
"1.F."A |\
d2d c2c | B2B A2A | G2G F2F | EDE D2A |\
d2d c2c | B2B A2A | G2G F2F | EDE D2A |
(c2A) (B2d) | (c2A) (B2d) | cdc BAB | A2A A2e |
(c2A) (B2d) | (c2A) (B2d) | cdc BAB | A2A A2a |\
afa geg | fdf e2A | AFA GEG | FDF E3 |\
E3 HE2 !segno!y |]

